X: 4170
M: C|
L: 1/8
K: D
[|\
(3(agf) (3(gfe) fdec | (3(Bcd) (AF) FEEF |]
|:\
dcdB ADFA | AFdF ADFA |\
dcdB ADFA | (3(Bcd) (AF) FEEF ::\
decd ABFA | BAFA Bcde |\
fdec dcBA | (3(Bcd) (AF) FEEF :|


